X: 1
T:Old Jes Sonningsens sonderh\o{}ning
R:Sonderh\o{}ning
O:Denmark
M:2/4
A:Fan\o{}
K:D
A2|\
d2d2 e2e2|fgfe d2cd|e2e2 efec|d2dA F2FG|\
A2AA B2c2|d6 ::
de|\
f2f2 a2a2|agfe d2ef|g2g2 g2b2|e2ed c2cd|\
e2e2 efec|d2dA F2FG|A2A2 B2c2 | d6:|
